Numix/16/status/indicator-keyboard-Cm.svg

<?xml version="1.0" encoding="UTF-8" standalone="no"?>
<svg
   xmlns:dc="http://purl.org/dc/elements/1.1/"
   xmlns:cc="http://creativecommons.org/ns#"
   xmlns:rdf="http://www.w3.org/1999/02/22-rdf-syntax-ns#"
   xmlns:svg="http://www.w3.org/2000/svg"
   xmlns="http://www.w3.org/2000/svg"
   xmlns:sodipodi="http://sodipodi.sourceforge.net/DTD/sodipodi-0.dtd"
   xmlns:inkscape="http://www.inkscape.org/namespaces/inkscape"
   viewBox="0 0 16 16"
   id="svg2"
   version="1.1"
   inkscape:version="0.91 r13725"
   sodipodi:docname="indicator-keyboard-Cm.svg">
  <metadata
     id="metadata13">
    <rdf:RDF>
      <cc:Work
         rdf:about="">
        <dc:format>image/svg+xml</dc:format>
        <dc:type
           rdf:resource="http://purl.org/dc/dcmitype/StillImage" />
      </cc:Work>
    </rdf:RDF>
  </metadata>
  <defs
     id="defs11" />
  <sodipodi:namedview
     pagecolor="#ffffff"
     bordercolor="#666666"
     borderopacity="1"
     objecttolerance="10"
     gridtolerance="10"
     guidetolerance="10"
     inkscape:pageopacity="0"
     inkscape:pageshadow="2"
     inkscape:window-width="640"
     inkscape:window-height="480"
     id="namedview9"
     showgrid="false"
     inkscape:zoom="14.75"
     inkscape:cx="8"
     inkscape:cy="8"
     inkscape:window-x="65"
     inkscape:window-y="24"
     inkscape:window-maximized="0"
     inkscape:current-layer="svg2" />
  <path
     style="fill:#ececec;fill-opacity:1"
     d="M 1.5996094 0 C 0.71320937 2.9605947e-16 0 0.71320937 0 1.5996094 L 0 14.400391 C 2.9605947e-16 15.286791 0.71320937 16 1.5996094 16 L 14.400391 16 C 15.286791 16 16 15.286791 16 14.400391 L 16 1.5996094 C 16 0.71320937 15.286791 0 14.400391 0 L 1.5996094 0 z M 4.8925781 4.7460938 C 5.1265781 4.7460938 5.3412031 4.7610156 5.5332031 4.7910156 C 5.7252031 4.8210156 5.8931094 4.8602031 6.0371094 4.9082031 C 6.1811094 4.9502031 6.30425 4.9949688 6.40625 5.0429688 C 6.50825 5.0849687 6.5846719 5.1241563 6.6386719 5.1601562 L 6.4414062 5.6914062 C 6.2914063 5.6014063 6.0992344 5.5136875 5.8652344 5.4296875 C 5.6372344 5.3396875 5.3517656 5.2949219 5.0097656 5.2949219 C 4.6197656 5.2949219 4.278375 5.3621406 3.984375 5.4941406 C 3.696375 5.6261406 3.4538594 5.8107813 3.2558594 6.0507812 C 3.0578594 6.2907813 2.9066875 6.57625 2.8046875 6.90625 C 2.7086875 7.23625 2.6621094 7.6019063 2.6621094 8.0039062 C 2.6621094 8.4179063 2.7086875 8.7929062 2.8046875 9.1289062 C 2.9066875 9.4589063 3.0540938 9.7406094 3.2460938 9.9746094 C 3.4380938 10.20861 3.6732187 10.389625 3.9492188 10.515625 C 4.2312188 10.641625 4.5521094 10.705078 4.9121094 10.705078 C 5.3081094 10.705078 5.6363906 10.667703 5.9003906 10.595703 C 6.1703906 10.517703 6.3756719 10.441281 6.5136719 10.363281 L 6.6835938 10.884766 C 6.6415937 10.914766 6.57075 10.950187 6.46875 10.992188 C 6.36675 11.028188 6.2380313 11.067375 6.0820312 11.109375 C 5.9260312 11.151375 5.7450156 11.184984 5.5410156 11.208984 C 5.3370156 11.238984 5.1094219 11.253906 4.8574219 11.253906 C 4.4554219 11.253906 4.0804219 11.181109 3.7324219 11.037109 C 3.3904219 10.893109 3.0900313 10.684203 2.8320312 10.408203 C 2.5800313 10.132203 2.3785156 9.792625 2.2285156 9.390625 C 2.0845156 8.982625 2.0136719 8.5180937 2.0136719 7.9960938 C 2.0136719 7.4740938 2.0920469 7.011375 2.2480469 6.609375 C 2.4100469 6.201375 2.6227187 5.8599844 2.8867188 5.5839844 C 3.1507188 5.3079844 3.4566875 5.1008906 3.8046875 4.9628906 C 4.1526875 4.8188906 4.5145781 4.7460938 4.8925781 4.7460938 z M 9.4785156 6.375 C 10.066516 6.375 10.491859 6.5466719 10.755859 6.8886719 C 10.785859 6.8646719 10.841781 6.8254844 10.925781 6.7714844 C 11.015781 6.7114844 11.127766 6.6517969 11.259766 6.5917969 C 11.391766 6.5317969 11.54475 6.4814531 11.71875 6.4394531 C 11.89875 6.3974531 12.0965 6.375 12.3125 6.375 C 12.6665 6.375 12.951969 6.4291094 13.167969 6.5371094 C 13.389969 6.6391094 13.561641 6.7865156 13.681641 6.9785156 C 13.801641 7.1645156 13.881828 7.3902969 13.923828 7.6542969 C 13.965828 7.9182969 13.986328 8.2055781 13.986328 8.5175781 L 13.986328 11.119141 L 13.402344 11.119141 L 13.402344 8.7070312 C 13.402344 8.4010313 13.387422 8.1360625 13.357422 7.9140625 C 13.333422 7.6860625 13.279313 7.5014219 13.195312 7.3574219 C 13.117312 7.2074219 13.003516 7.0954375 12.853516 7.0234375 C 12.703516 6.9454375 12.507578 6.90625 12.267578 6.90625 C 12.087578 6.90625 11.923438 6.9249375 11.773438 6.9609375 C 11.629437 6.9909375 11.502531 7.030125 11.394531 7.078125 C 11.286531 7.126125 11.197 7.1727031 11.125 7.2207031 C 11.059 7.2687031 11.010469 7.3060781 10.980469 7.3300781 C 11.034469 7.4860781 11.073656 7.6633281 11.097656 7.8613281 C 11.127656 8.0533281 11.142578 8.2566562 11.142578 8.4726562 L 11.142578 11.119141 L 10.558594 11.119141 L 10.558594 8.7070312 C 10.558594 8.4010313 10.541719 8.1360625 10.511719 7.9140625 C 10.487719 7.6860625 10.435562 7.5014219 10.351562 7.3574219 C 10.267563 7.2074219 10.146235 7.0954375 9.9902344 7.0234375 C 9.8402344 6.9454375 9.6387188 6.90625 9.3867188 6.90625 C 9.1047187 6.90625 8.8659688 6.9211719 8.6679688 6.9511719 C 8.4759688 6.9811719 8.3528281 7.0092031 8.2988281 7.0332031 L 8.2988281 11.119141 L 7.7128906 11.119141 L 7.7128906 6.6269531 C 7.8868906 6.5789531 8.1126719 6.5248438 8.3886719 6.4648438 C 8.6706719 6.4048438 9.0345156 6.375 9.4785156 6.375 z "
     id="path4" />
</svg>

<svg xmlns="http://www.w3.org/2000/svg" viewBox="0 0 16 16">
 <path d="m 1.6 0 c -0.886 0 -1.6 0.713 -1.6 1.6 l 0 12.801 c 0 0.886 0.713 1.6 1.6 1.6 l 12.801 0 c 0.886 0 1.6 -0.713 1.6 -1.6 l 0 -12.801 c 0 -0.886 -0.713 -1.6 -1.6 -1.6 l -12.801 0 z m 3.293 4.746 c 0.234 0 0.449 0.015 0.641 0.045 c 0.192 0.03 0.36 0.069 0.504 0.117 c 0.144 0.042 0.267 0.087 0.369 0.135 c 0.102 0.042 0.178 0.081 0.232 0.117 l -0.197 0.531 c -0.15 -0.09 -0.342 -0.178 -0.576 -0.262 c -0.228 -0.09 -0.513 -0.135 -0.855 -0.135 c -0.39 0 -0.731 0.067 -1.025 0.199 c -0.288 0.132 -0.531 0.317 -0.729 0.557 c -0.198 0.24 -0.349 0.525 -0.451 0.855 c -0.096 0.33 -0.143 0.696 -0.143 1.098 c 0 0.414 0.047 0.789 0.143 1.125 c 0.102 0.33 0.249 0.612 0.441 0.846 c 0.192 0.234 0.427 0.415 0.703 0.541 c 0.282 0.126 0.603 0.189 0.963 0.189 c 0.396 0 0.724 -0.037 0.988 -0.109 c 0.27 -0.078 0.475 -0.154 0.613 -0.232 l 0.17 0.521 c -0.042 0.03 -0.113 0.065 -0.215 0.107 c -0.102 0.036 -0.231 0.075 -0.387 0.117 c -0.156 0.042 -0.337 0.076 -0.541 0.1 c -0.204 0.03 -0.432 0.045 -0.684 0.045 c -0.402 0 -0.777 -0.073 -1.125 -0.217 c -0.342 -0.144 -0.642 -0.353 -0.9 -0.629 c -0.252 -0.276 -0.454 -0.616 -0.604 -1.018 c -0.144 -0.408 -0.215 -0.873 -0.215 -1.395 c 0 -0.522 0.078 -0.985 0.234 -1.387 c 0.162 -0.408 0.375 -0.749 0.639 -1.025 c 0.264 -0.276 0.57 -0.483 0.918 -0.621 c 0.348 -0.144 0.71 -0.217 1.088 -0.217 z m 4.586 1.629 c 0.588 0 1.013 0.172 1.277 0.514 c 0.03 -0.024 0.086 -0.063 0.17 -0.117 c 0.09 -0.06 0.202 -0.12 0.334 -0.18 c 0.132 -0.06 0.285 -0.11 0.459 -0.152 c 0.18 -0.042 0.378 -0.064 0.594 -0.064 c 0.354 0 0.639 0.054 0.855 0.162 c 0.222 0.102 0.394 0.249 0.514 0.441 c 0.12 0.186 0.2 0.412 0.242 0.676 c 0.042 0.264 0.063 0.551 0.063 0.863 l 0 2.602 l -0.584 0 l 0 -2.412 c 0 -0.306 -0.015 -0.571 -0.045 -0.793 c -0.024 -0.228 -0.078 -0.413 -0.162 -0.557 c -0.078 -0.15 -0.192 -0.262 -0.342 -0.334 c -0.15 -0.078 -0.346 -0.117 -0.586 -0.117 c -0.18 0 -0.344 0.019 -0.494 0.055 c -0.144 0.03 -0.271 0.069 -0.379 0.117 c -0.108 0.048 -0.198 0.095 -0.27 0.143 c -0.066 0.048 -0.115 0.085 -0.145 0.109 c 0.054 0.156 0.093 0.333 0.117 0.531 c 0.03 0.192 0.045 0.395 0.045 0.611 l 0 2.646 l -0.584 0 l 0 -2.412 c 0 -0.306 -0.017 -0.571 -0.047 -0.793 c -0.024 -0.228 -0.076 -0.413 -0.16 -0.557 c -0.084 -0.15 -0.205 -0.262 -0.361 -0.334 c -0.15 -0.078 -0.352 -0.117 -0.604 -0.117 c -0.282 0 -0.521 0.015 -0.719 0.045 c -0.192 0.03 -0.315 0.058 -0.369 0.082 l 0 4.086 l -0.586 0 l 0 -4.492 c 0.174 -0.048 0.4 -0.102 0.676 -0.162 c 0.282 -0.06 0.646 -0.09 1.09 -0.09 z" style="fill:#ececec;fill-opacity:1"/>
</svg>
